X: 9
T: Planxty Irwin
R: planxty
M: 6/8
L: 1/8
K: Gmaj
   d | "G" g2f "C" e>fg | "G" d2c B>AG | "C" c2A B>cd       | "D" F2G A2      |
   d | "G" g2f "C" e>fg | "G" d2c B>AG | "Am" c2A "D" B>cd  | "G" G2F G2     :|
|: d | "G" g>ag gfg     | "D" a>ba afd | "G" b2b "Am" a>bg  | "D" f>ge d>ef   |
       "G" g2f "C" e>fg | "G" d2c B>AG | "Am" c2A "D" B>cd  | DGF "G" G2     :|


